X: 43055
T: Wind That Shakes The Barley, The
R: reel
M: 4/4
K: Dmajor
A2AB AFED|B2BA BcdB|A2AB AFED|gfed BcdB|
A2AB AFED|B2BA BcdB|A2AB AFED|gfed Bcde||
f2fd g2ge|f2fd Bcde|f2fd g2fg|afed Bcde|
f2fd g2ge|f2fd Bcde|defg a2ab|afed BcdB||

